usr/share/icons/biglinux-icons-material/symbolic/actions/pub-symbolic.svg

<svg width="16px" height="16px" version="1.1">
 <path d="m4.2969 1c-1.1094 0-2 0.89062-2 2h2.7031v4.5c0 0.27734 0.22266 0.5 0.5 0.5s0.5-0.22266 0.5-0.5v-4.5h6.0195c-0.34375-0.59766-0.98047-1-1.7227-1-0.41406 0-0.80078 0.125-1.1211 0.33984-0.26953-0.78125-1.0039-1.3398-1.8789-1.3398-0.60156 0-1.1328 0.26953-1.5 0.6875-0.36719-0.41797-0.89844-0.6875-1.5-0.6875zm-2.2969 3v3 2 2c0 1.662 1.338 3 3 3h4c1.3109 0 2.4199-0.83272 2.8301-2h0.16992c1.662 0 3-1.338 3-3v-2c0-1.662-1.338-3-3-3h-1v0.76562 4.2344 2c0 1.108-0.892 2-2 2h-4c-1.108 0-2-0.892-2-2v-2-4.2344-0.76562h-1zm10 1c1.108 0 2 0.892 2 2v2c0 1.108-0.892 2-2 2v-2-2-2zm-11 10v1h14v-1h-14z" fill="#dedede"/>
</svg>

<svg width="16" height="16"><path fill="#dedede" d="M4.297 1c-1.11 0-2 .89-2 2H5v4.5c0 .277.223.5.5.5s.5-.223.5-.5V3h6.02c-.344-.598-.981-1-1.723-1-.414 0-.801.125-1.121.34a1.982 1.982 0 0 0-3.38-.652A1.99 1.99 0 0 0 4.297 1zM2 4v7c0 1.662 1.338 3 3 3h4c1.31 0 2.42-.833 2.83-2H12c1.662 0 3-1.338 3-3V7c0-1.662-1.338-3-3-3h-1v7c0 1.108-.892 2-2 2H5c-1.108 0-2-.892-2-2V4H2zm10 1c1.108 0 2 .892 2 2v2c0 1.108-.892 2-2 2V5zM1 15v1h14v-1H1z"/></svg>
